X:766
T:Lovely Stornoway
C:Joe Buchanan's Scottish Tome - Page 528.3
I:528 3
Z:Carl Allison
R:Slow Air
L:1/4
M:3/4
K:D
D2 B | A2 D | d2 c | B3 | d2 B | A2 D | F2 E | E3 |
D2 B | A2 D | d2 c | B2 A | A d2 | F2 E | D2- | D :|
